

d1
$ slow 2
$ every 3 palindrome
$ every 2 (jux rev)
$ stut 5 0.5 1.55
$ n "{5 [2 0] [1 6]}%4 {3 [2 <0 6>] <[5 6] [1 6]>}%4"
# s "glitch"
# slow 7 (cutoff "[1000 500] 175 [[550 500] 1750] [1500 500 750]")
# gain "2"
# room "0.2"

d1
$ stut 3 0.5 0.75
$ chop 2
$ striate 3
$ slow 2
$ n "[1, <2 5>] [<3 6>, 4]"
# s "numbers"
# legato "3"
# cutoff "500"
# gain "1.25"
