s.boot;
s.quit;

SuperDirt.start;

ServerOptions.devices;

Server.default.options.outDevice_("Soundflower (2ch)");
Server.default.options.outDevice_("Built-in Output");
Server.default.options.outDevice_("Scarlett 2i2");
